source/svgs/bowtie/uE9DF-file-code.svg

<svg xmlns="http://www.w3.org/2000/svg" viewBox="0 0 448 448"><path d="M262.625 0h-230.625v448h352v-326.625l-121.375-121.375zm-6.625 38.625l89.375 89.375h-89.375v-89.375zm96 377.375h-288v-384h160v128h128v256zm-203.312-84.687l-75.313-75.313 75.313-75.313 22.625 22.625-52.688 52.688 52.688 52.688-22.625 22.625zm118.625 0l-22.625-22.625 52.687-52.688-52.688-52.688 22.625-22.625 75.313 75.313-75.312 75.313z"/></svg>

<svg xmlns="http://www.w3.org/2000/svg" viewBox="0 0 448 448"><path d="M262.625 0H32v448h352V121.375L262.625 0zM256 38.625L345.375 128H256V38.625zM352 416H64V32h160v128h128v256zm-203.312-84.687L73.375 256l75.313-75.313 22.625 22.625L118.625 256l52.688 52.688-22.625 22.625zm118.625 0l-22.625-22.625L297.375 256l-52.688-52.688 22.625-22.625L342.625 256l-75.312 75.313z"/></svg>
